build/img/icons/panel.svg

<svg width="40" height="40" viewBox="0 0 40 40" fill="none" xmlns="http://www.w3.org/2000/svg">
<path d="M34.9219 0H5.07812C4.43094 0 3.90625 0.524687 3.90625 1.17188V38.8281C3.90625 39.4753 4.43094 40 5.07812 40H34.9219C35.5691 40 36.0938 39.4753 36.0938 38.8281V1.17188C36.0938 0.524687 35.5691 0 34.9219 0ZM33.75 37.6562H6.25V2.34375H33.75V37.6562Z" fill="#5CC773"/>
<path d="M30.2344 4.6875H9.76562C9.11844 4.6875 8.59375 5.21219 8.59375 5.85938V34.1406C8.59375 34.7878 9.11844 35.3125 9.76562 35.3125H30.2344C30.8816 35.3125 31.4062 34.7878 31.4062 34.1406V5.85938C31.4062 5.21219 30.8816 4.6875 30.2344 4.6875ZM18.8281 32.9688H10.9375V25.8594H18.8281V32.9688ZM18.8281 23.5156H10.9375V16.4844H18.8281V23.5156ZM18.8281 14.1406H10.9375V7.03125H18.8281V14.1406ZM29.0625 32.9688H21.1719V25.8594H29.0625V32.9688ZM29.0625 23.5156H21.1719V16.4844H29.0625V23.5156ZM29.0625 14.1406H21.1719V7.03125H29.0625V14.1406Z" fill="#5CC773"/>
</svg>

<svg width="40" height="40" fill="none" xmlns="http://www.w3.org/2000/svg">
    <path d="M34.922 0H5.078c-.647 0-1.172.525-1.172 1.172v37.656c0 .647.525 1.172 1.172 1.172h29.844c.647 0 1.172-.525 1.172-1.172V1.172C36.094.525 35.569 0 34.922 0zM33.75 37.656H6.25V2.344h27.5v35.312z" fill="#5CC773"/>
    <path d="M30.234 4.688H9.766c-.648 0-1.172.524-1.172 1.171v28.282c0 .647.524 1.172 1.172 1.172h20.468c.648 0 1.172-.525 1.172-1.172V5.859c0-.647-.524-1.171-1.172-1.171zm-11.406 28.28h-7.89V25.86h7.89v7.11zm0-9.452h-7.89v-7.032h7.89v7.032zm0-9.375h-7.89V7.03h7.89v7.11zm10.235 18.828h-7.891v-7.11h7.89v7.11zm0-9.453h-7.891v-7.032h7.89v7.032zm0-9.375h-7.891V7.03h7.89v7.11z" fill="#5CC773"/>
</svg>
